X: 10652
T: Down The Back Lane
R: jig
M: 6/8
K: Dmixolydian
d|cAG A2 G|FDE ~F2 d|c.A.A BAG|Ade (3.a.f.e d|
cAG A2 G|FDE F2 G|A.d.d (3.g.f.e d|ecA GGG|
ABG A2 G|FDE FF d|c.A.A BAG|Ade fed|
cAG A2 G|FDE ~F2 G|A.d.d fed|ecA ~G3|
|:A.d.d fed|cAB cAG|A.d.d (3.g.f.e d|ecA G3|
A.d.d (3.g.f.e d|cAB cde|(fa) .g .e.f.d|cAF G3:|
d|AAA A2 G|FDE F2 d|{d}c.A.A {c}BAG|A.d.d uf.d.d|
cAG .A.A.G|FDE F2 G|ATd2 ufed|uecA !slide!~G3|
(3AcA A A2 G|FDE F2 d|c.A.A BAG|Ade fed|
cAG (3AcA G|FDE FF G|A.d.d {g}fed|{g}ecA !slide!~G3|
|:Add fdd|cAA BAG|A.d.d fed|ecA !slide!~G3|
.A.A d fed|cAB cde|(3fag f (3.g.f.e d|{d}cAF ~G3:|

